src/resources/icons/src/all/global.svg

<svg
  width="48"
  height="48"
  viewBox="0 0 48 48"
  xmlns="http://www.w3.org/2000/svg"
>
<path
    d="M45 24C45 12.39 35.61 3 24 3C12.39 3 3 12.39 3 24C3 34.98 11.43 43.98 22.17 44.91C22.77 44.97 23.37 45 23.97 45C24.57 45 25.17 44.97 25.77 44.91C36.54 44.01 44.97 34.98 44.97 24H45ZM24.6 41.97C24.39 41.97 24.21 42 24 42C23.79 42 23.58 42 23.37 41.97C21.45 40.14 18.3 35.61 18 25.5H30C29.7 35.61 26.55 40.14 24.63 41.97H24.6ZM41.91 22.5H32.97C32.76 14.73 30.99 9.81 29.07 6.75C36.06 8.82 41.28 15 41.91 22.5ZM24.69 6.03C26.58 7.83 29.7 12.36 30 22.5H18C18.27 12.39 21.42 7.86 23.28 6.03C23.52 6.03 23.76 6 24 6C24.24 6 24.45 6 24.69 6.03ZM18.9 6.75C16.98 9.81 15.21 14.73 15 22.5H6.09C6.72 15 11.94 8.82 18.9 6.75ZM6.09 25.5H15C15.21 33.33 17.1 38.28 18.99 41.28C11.97 39.24 6.69 33.03 6.06 25.5H6.09ZM28.98 41.28C30.9 38.28 32.76 33.33 33 25.5H41.94C41.31 33.03 36.03 39.24 28.98 41.28Z"
    fill-rule="evenodd"
  />
</svg>

<?xml version="1.0" encoding="UTF-8" ?>
<svg id="a" xmlns="http://www.w3.org/2000/svg" viewBox="0 0 48 48"><path
    d="m45,24c0-11.6-9.4-21-21-21S3,12.4,3,24c0,11,8.4,20,19.2,20.9h0c.6.1,1.2.1,1.8.1s1.2,0,1.8-.1h0c10.7-.9,19.2-9.9,19.2-20.9h0Zm-20.4,18h-1.2c-1.9-1.8-5.1-6.4-5.4-16.5h12c-.3,10.1-3.4,14.6-5.4,16.5h0Zm17.3-19.5h-8.9c-.2-7.8-2-12.7-3.9-15.8,7,2.1,12.2,8.3,12.8,15.8ZM24.7,6c1.9,1.8,5,6.3,5.3,16.5h-12c.3-10.1,3.4-14.6,5.3-16.5h1.4Zm-5.8.8c-1.9,3.1-3.7,8-3.9,15.7H6.1c.6-7.5,5.8-13.7,12.8-15.7ZM6.1,25.5h8.9c.2,7.8,2.1,12.8,4,15.8-7-2.1-12.3-8.3-12.9-15.8h0Zm22.9,15.8c1.9-3,3.8-8,4-15.8h8.9c-.6,7.5-5.9,13.7-12.9,15.8Z"
    fill-rule="evenodd"
  /></svg>
